cssgg/chevron-double-left.svg

<svg
  width="24"
  height="24"
  viewBox="0 0 24 24"
  fill="none"
  xmlns="http://www.w3.org/2000/svg"
>
  <path
    d="M18.3639 7.75735L16.9497 6.34314L11.2929 12L16.9497 17.6568L18.3639 16.2426L14.1213 12L18.3639 7.75735Z"
    fill="currentColor"
  />
  <path
    d="M11.2929 6.34314L12.7071 7.75735L8.46447 12L12.7071 16.2426L11.2929 17.6568L5.63605 12L11.2929 6.34314Z"
    fill="currentColor"
  />
</svg>

<svg viewBox="0 0 24 24" xmlns="http://www.w3.org/2000/svg"><g><path d="M18.36 7.75l-1.42-1.42 -5.66 5.65 5.65 5.65 1.41-1.42 -4.25-4.25 4.24-4.25Z"/><path d="M11.29 6.34l1.41 1.41 -4.25 4.24 4.24 4.24 -1.42 1.41 -5.66-5.66 5.65-5.66Z"/></g></svg>
